src/svg-icons/svg/room-prizecup.svg

<?xml version="1.0" encoding="UTF-8" standalone="no"?>
<svg width="32px" height="32px" viewBox="0 0 32 32" version="1.1" xmlns="http://www.w3.org/2000/svg" xmlns:xlink="http://www.w3.org/1999/xlink">
    <!-- Generator: Sketch 3.7.2 (28276) - http://www.bohemiancoding.com/sketch -->
    <title>Artboard 1</title>
    <desc>Created with Sketch.</desc>
    <defs></defs>
    <g id="Page-1" stroke="none" stroke-width="1" fill="none" fill-rule="evenodd">
        <g id="Artboard-1" fill="#000000">
            <path d="M12.0940152,7.4 L11.5416378,7.4 L11.4960611,7.9504939 L10.7578078,16.8674066 C10.6629409,18.0132463 11.469011,19.1387806 12.5834851,19.4164713 L15.8461321,20.2294168 L15.9911973,20.2655623 L16.1362624,20.2294168 L19.3989095,19.4164713 C20.5128293,19.1389188 21.3194025,18.0126285 21.2245868,16.8674066 L20.4863336,7.9504939 L20.4407568,7.4 L19.8883794,7.4 L12.0940152,7.4 Z M20.0286785,16.9664188 C20.0749821,17.5256913 19.6516681,18.1168023 19.1087793,18.2520726 L15.9524536,19.022583 L12.8736154,18.2520726 C12.3301611,18.1166614 11.9073623,17.5262978 11.9537161,16.9664188 C11.9537161,16.9664188 12.4002544,11.3762922 12.6294556,8.60791016 L19.3330688,8.60198975 C19.5679661,11.4017529 20.0286785,16.9664188 20.0286785,16.9664188 Z" id="Combined-Shape"></path>
            <polygon id="Line" points="15.391195 19.4113208 15.391195 20.3622642 16.591195 20.3622642 16.591195 19.4113208"></polygon>
            <polygon id="Rectangle-1565" points="13.772327 20.0792453 13.4545504 20.0792453 13.275997 20.3421155 12.6420348 21.2754488 12.0054938 22.2125786 13.1383648 22.2125786 18.8440252 22.2125786 19.9768962 22.2125786 19.3403552 21.2754488 18.7063929 20.3421155 18.5278396 20.0792453 18.2100629 20.0792453"></polygon>
            <path d="M11.236478,21.0266724 L10.636478,21.0266724 L10.636478,21.6266724 L10.636478,24.4795026 L10.636478,25.0795026 L11.236478,25.0795026 L20.7459119,25.0795026 L21.3459119,25.0795026 L21.3459119,24.4795026 L21.3459119,21.6266724 L21.3459119,21.0266724 L20.7459119,21.0266724 L11.236478,21.0266724 Z M12.296131,22.2199993 L11.8299999,22.2199993 L11.8299999,22.4657535 L11.8299999,23.6342451 L11.8299999,23.8799993 L12.296131,23.8799993 L19.6838686,23.8799993 L20.1499996,23.8799993 L20.1499996,23.6342451 L20.1499996,22.4657535 L20.1499996,22.2199993 L19.6838686,22.2199993 L12.296131,22.2199993 Z" id="Combined-Shape"></path>
            <path d="M22.3966675,10.7645874 C22.3967301,10.7648298 22.3897079,10.7567901 22.3912354,10.7924194 C22.3823853,10.9884644 22.3886797,10.9804896 22.3130304,11.4567133 C22.1986322,12.1768669 21.9787317,12.8867918 21.6303261,13.5461881 C21.267361,14.2331399 20.7798258,14.8349235 20.150688,15.3317875 L20.8944237,16.2735185 C21.6592229,15.6695154 22.2526683,14.9370027 22.6913281,14.1067902 C23.1057919,13.3223714 23.364269,12.4879063 23.4981706,11.6449757 C23.5868401,11.0867876 23.6102198,10.6040051 23.5970238,10.2362521 C23.5946659,10.1806729 23.5946659,10.1806729 23.5934334,10.161894 L23.5553553,9.60265299 L22.9948194,9.60265299 L20.9347963,9.60265299 L20.6610858,9.60265299 L20.4816723,9.80936097 L19.746876,10.6559427 L20.653124,11.4425268 L20.9744263,11.0596924 L21.1541748,10.8527832 L21.2370605,10.7937012 L22.4001465,10.7991333 L22.3966675,10.7645874 Z" id="Path-3529"></path>
            <path d="M11.5183275,9.80796583 L11.3389139,9.60125786 L11.0652035,9.60125786 L9.00518034,9.60125786 L8.44464453,9.60125786 L8.40656636,10.1604988 C8.40533389,10.1792777 8.40533389,10.1792777 8.40297596,10.2348569 C8.38977997,10.60261 8.41315966,11.0853925 8.50182921,11.6435806 C8.6357308,12.4865112 8.89420792,13.3209763 9.30867167,14.1053951 C9.74733145,14.9356075 10.3407769,15.6681203 11.105576,16.2721234 L11.8493117,15.3303924 C11.220174,14.8335284 10.7326388,14.2317448 10.3696737,13.5447929 C10.0212681,12.8853966 9.80136755,12.1754718 9.68696939,11.4553182 C9.6113201,10.9790945 9.61645508,10.9884033 9.59606934,10.7821655 C9.59759683,10.7465362 9.61077718,10.7849714 9.61083984,10.784729 L9.59387207,10.8010254 C9.97499596,10.8012044 10.463371,10.797129 10.6680072,10.7952434 C10.7291948,10.7946796 10.7650146,10.7943115 10.7650146,10.7943115 L10.7711182,10.7678223 L11.3468758,11.4411316 L12.2531238,10.6545476" id="Path-3529"></path>
            <polyline id="Star-18" points="17.2022095 14.119812 17.2022095 14.1407471 17.6158699 13.743502 18.4864396 12.8949063 17.2833419 12.7200859 16.7457886 12.6604004 16.7212524 12.6773071 16.5292366 12.1721964 15.991195 11.082005 15.4531533 12.1721964 15.2211914 12.6502075 14.6990481 12.7200859 13.4959504 12.8949063 14.3665201 13.743502 14.748291 14.116394 14.6545626 14.6300058 14.449049 15.8282422 15.5251323 15.2625117 15.9542847 14.994751 16.0108643 15.0062866 16.1002197 14.9886475 16.472229 15.2166748 17.5333409 15.8282422 17.3278273 14.6300058"></polyline>
        </g>
    </g>
</svg>

<svg width="32" height="32" viewBox="0 0 32 32" xmlns="http://www.w3.org/2000/svg"><g fill="#000" fill-rule="evenodd"><path d="M12.094 7.4h-.552l-.046.55-.738 8.917c-.095 1.146.71 2.272 1.825 2.55l3.263.812.145.036.146-.037 3.263-.814c1.113-.277 1.92-1.403 1.825-2.55l-.74-8.916-.044-.55h-8.346zm7.935 9.566c.045.56-.378 1.15-.92 1.286l-3.158.77-3.078-.77c-.544-.135-.967-.726-.92-1.286 0 0 .446-5.59.675-8.358l6.703-.006c.235 2.8.696 8.364.696 8.364z"/><path d="M15.39 19.41v.952h1.2v-.95z"/><path d="M13.772 20.08h-.317l-.18.262-.633.933-.637.938h7.972l-.637-.938-.634-.933-.178-.263h-.318z"/><path d="M11.236 21.027h-.6v4.053H21.346v-4.053h-10.11zm1.06 1.193h-.466v1.66h8.32v-1.66h-7.854zM22.397 10.765s-.007-.008-.006.027c-.008.196 0 .188-.077.665a6.72 6.72 0 0 1-.683 2.09 5.556 5.556 0 0 1-1.48 1.785l.744.942a6.753 6.753 0 0 0 1.797-2.167c.416-.785.674-1.62.808-2.462.09-.558.112-1.04.1-1.41l-.005-.073-.038-.56H20.66l-.178.207-.735.846.906.787.32-.383.18-.207.084-.06 1.163.006-.003-.035zM11.518 9.808l-.18-.207H8.446l-.038.56-.004.075c-.013.368.01.85.1 1.41.133.842.39 1.676.806 2.46a6.753 6.753 0 0 0 1.796 2.167l.743-.942a5.556 5.556 0 0 1-1.48-1.785 6.72 6.72 0 0 1-.683-2.09c-.076-.476-.07-.467-.09-.673 0-.035.014.003.014.003l-.016.016c.38 0 .87-.003 1.074-.005h.097l.006-.027.577.673.906-.785M17.202 14.12v.02l.414-.396.87-.85-1.203-.174-.537-.06-.025.017-.19-.505-.54-1.09-.537 1.09-.232.478-.52.07-1.204.175.87.85.382.37-.093.515-.206 1.198 1.075-.565.43-.268.056.01.09-.016.372.227 1.06.61-.204-1.197"/></g></svg>
